assets/Bacon/Flat/bacon_flat.svg

<svg width="32" height="32" viewBox="0 0 32 32" fill="none" xmlns="http://www.w3.org/2000/svg">
<path d="M15.5382 4.1457C15.4741 4.04689 15.3904 3.94674 15.2783 3.83464L16.8083 2.30464C17.2883 1.82464 18.0983 1.92464 18.4383 2.51464C18.9076 3.31628 19.0137 4.06059 19.0929 4.61674L19.0983 4.65464L19.1002 4.66873C19.1788 5.26851 19.2115 5.51781 19.6183 5.92464C20.0283 6.32464 20.2783 6.36464 20.8883 6.44464L20.9058 6.4471C21.686 6.55708 22.8673 6.72357 24.0583 7.91464C25.2534 9.10969 25.417 10.2849 25.527 11.0748L25.5283 11.0846L25.5302 11.0987C25.6088 11.6985 25.6415 11.9478 26.0483 12.3546C26.4583 12.7546 26.7083 12.7946 27.3183 12.8746C27.8783 12.9446 28.6383 13.0546 29.4583 13.5346C30.0383 13.8846 30.1483 14.6846 29.6683 15.1646L28.1383 16.6946C27.9708 16.5312 27.83 16.4279 27.6805 16.3574L25.5697 18.5104C25.6988 18.6171 25.8285 18.7348 25.9584 18.8646L25.0284 19.7946C24.3284 20.4946 23.3384 20.8246 22.3584 20.6946H22.3384L22.3209 20.6922C21.5406 20.5822 20.3594 20.4157 19.1684 19.2246C17.9733 18.0296 17.8097 16.8544 17.6997 16.0644L17.6984 16.0546L17.6965 16.0405C17.6179 15.4408 17.5852 15.1915 17.1784 14.7846C16.7684 14.3846 16.5184 14.3446 15.9084 14.2646L15.8909 14.2622C15.1107 14.1522 13.9294 13.9857 12.7384 12.7946C11.5473 11.6036 11.3808 10.4224 11.2708 9.64213L11.2684 9.62464V9.60464C11.1384 8.62464 11.4584 7.64464 12.1584 6.94464L13.0984 6.00464C13.2231 6.12939 13.3366 6.25392 13.44 6.37782L15.5382 4.1457Z" fill="#CA0B4A"/>
<path d="M6.34759 13.4986C6.27875 13.372 6.18181 13.2481 6.03833 13.1046L7.56833 11.5746C8.04833 11.0946 8.84833 11.2046 9.19833 11.7846C9.66759 12.5863 9.77366 13.3306 9.85292 13.8867L9.85833 13.9246L9.86102 13.9451C9.93905 14.5405 9.97295 14.7991 10.3783 15.1946C10.7883 15.5946 11.0383 15.6346 11.6483 15.7146L11.6658 15.7171C12.4461 15.8271 13.6273 15.9936 14.8183 17.1846C16.0134 18.3797 16.177 19.5549 16.287 20.3448L16.2883 20.3546L16.2902 20.3687C16.3688 20.9685 16.4015 21.2178 16.8083 21.6246C17.2183 22.0246 17.4683 22.0646 18.0783 22.1446C18.6383 22.2146 19.3983 22.3246 20.2183 22.8046C20.7983 23.1546 20.9083 23.9546 20.4283 24.4346L18.8983 25.9646C18.7628 25.8324 18.6448 25.7395 18.5254 25.6715L16.3946 27.845C16.5023 27.9369 16.6103 28.0365 16.7184 28.1446L15.7884 29.0746C15.0884 29.7746 14.0984 30.1046 13.1184 29.9746H13.0984L13.0809 29.9722C12.3007 29.8622 11.1194 29.6957 9.92838 28.5046C8.73333 27.3096 8.56972 26.1344 8.45974 25.3444L8.45838 25.3346L8.45653 25.3205C8.37789 24.7208 8.34521 24.4715 7.93838 24.0646C7.52838 23.6646 7.27838 23.6246 6.66838 23.5446L6.65089 23.5422C5.87066 23.4322 4.68945 23.2657 3.49838 22.0746C2.30731 20.8836 2.14082 19.7024 2.03085 18.9221L2.02838 18.9046V18.8846C1.89838 17.9046 2.21838 16.9246 2.91838 16.2246L3.85838 15.2846C4.00562 15.4319 4.13721 15.5788 4.25496 15.7248L6.34759 13.4986Z" fill="#CA0B4A"/>
<path d="M18.1508 12.0022C17.3706 11.8922 16.1894 11.7257 14.9983 10.5346C13.8032 9.33958 13.6396 8.16436 13.5297 7.37442L13.5283 7.36463L13.5265 7.35053C13.4478 6.75075 13.4151 6.50146 13.0083 6.09463L15.3583 3.74463C16.5534 4.93968 16.717 6.1149 16.8269 6.90484L16.8283 6.91463L16.8301 6.92872C16.9088 7.52851 16.9415 7.7778 17.3483 8.18463C17.7583 8.58463 18.0083 8.62463 18.6183 8.70463L18.6358 8.70709C19.416 8.81707 20.5972 8.98356 21.7883 10.1746C22.9834 11.3697 23.147 12.5449 23.2569 13.3348L23.2583 13.3446L23.2601 13.3587C23.3388 13.9585 23.3715 14.2078 23.7783 14.6146C24.1883 15.0146 24.4383 15.0546 25.0483 15.1346L25.0658 15.1371C25.846 15.2471 27.0272 15.4136 28.2183 16.6046L25.8683 18.9546C25.4583 18.5546 25.2083 18.5146 24.5983 18.4346L24.5808 18.4322C23.8006 18.3222 22.6194 18.1557 21.4283 16.9646C20.2332 15.7696 20.0696 14.5944 19.9597 13.8044L19.9583 13.7946L19.9564 13.7805C19.8778 13.1807 19.8451 12.9315 19.4383 12.5246C19.0283 12.1246 18.7783 12.0846 18.1683 12.0046L18.1508 12.0022Z" fill="#FFDEA7"/>
<path d="M8.91082 21.2822C8.13059 21.1722 6.94938 21.0057 5.75831 19.8146C4.56724 18.6236 4.40075 17.4423 4.29078 16.6621L4.28831 16.6446L4.28646 16.6305C4.20782 16.0308 4.17514 15.7815 3.76831 15.3746L6.11831 13.0246C7.31336 14.2197 7.47697 15.3949 7.58695 16.1848L7.58831 16.1946L7.59016 16.2087C7.6688 16.8085 7.70148 17.0578 8.10831 17.4646C8.51831 17.8646 8.76831 17.9046 9.37831 17.9846L9.3958 17.9871C10.176 18.0971 11.3572 18.2636 12.5483 19.4546C13.7434 20.6497 13.907 21.8249 14.0169 22.6148L14.0183 22.6246L14.0202 22.6387C14.0988 23.2385 14.1315 23.4878 14.5383 23.8946C14.9483 24.2946 15.1983 24.3346 15.8083 24.4146L15.8258 24.4171C16.606 24.5271 17.7872 24.6936 18.9783 25.8846L16.6283 28.2346C16.2183 27.8346 15.9683 27.7946 15.3583 27.7146L15.3408 27.7122C14.5606 27.6022 13.3794 27.4357 12.1883 26.2446C10.9933 25.0496 10.8296 23.8744 10.7197 23.0844L10.7183 23.0746L10.7165 23.0605C10.6378 22.4608 10.6051 22.2115 10.1983 21.8046C9.78831 21.4046 9.53831 21.3646 8.92831 21.2846L8.91082 21.2822Z" fill="#FFDEA7"/>
</svg>

<svg xmlns="http://www.w3.org/2000/svg" width="32" height="32" fill="none"><path fill="#CA0B4A" d="M15.538 4.146a1.929 1.929 0 0 0-.26-.311l1.53-1.53c.48-.48 1.29-.38 1.63.21.47.801.576 1.546.655 2.102l.005.038.002.014c.079.6.111.849.518 1.256.41.4.66.44 1.27.52l.018.002c.78.11 1.961.277 3.152 1.468 1.195 1.195 1.359 2.37 1.469 3.16l.001.01.002.014c.079.6.111.849.518 1.256.41.4.66.44 1.27.52.56.07 1.32.18 2.14.66.58.35.69 1.15.21 1.63l-1.53 1.53a1.679 1.679 0 0 0-.458-.338l-2.11 2.153c.129.107.258.225.388.355l-.93.93c-.7.7-1.69 1.03-2.67.9h-.02l-.017-.003c-.78-.11-1.962-.276-3.153-1.467-1.195-1.195-1.358-2.37-1.468-3.16l-.002-.01-.002-.014c-.078-.6-.11-.85-.518-1.256-.41-.4-.66-.44-1.27-.52l-.017-.003c-.78-.11-1.962-.276-3.153-1.467-1.19-1.191-1.357-2.373-1.467-3.153l-.003-.017v-.02c-.13-.98.19-1.96.89-2.66l.94-.94c.125.124.239.249.342.373l2.098-2.232ZM6.348 13.499a1.728 1.728 0 0 0-.31-.394l1.53-1.53c.48-.48 1.28-.37 1.63.21.47.801.576 1.546.655 2.102l.005.038.003.02c.078.595.112.854.517 1.25.41.4.66.44 1.27.52l.018.002c.78.11 1.961.277 3.152 1.468 1.195 1.195 1.359 2.37 1.469 3.16l.001.01.002.014c.079.6.111.849.518 1.256.41.4.66.44 1.27.52.56.07 1.32.18 2.14.66.58.35.69 1.15.21 1.63l-1.53 1.53a1.845 1.845 0 0 0-.373-.293l-2.13 2.173c.107.092.215.192.323.3l-.93.93c-.7.7-1.69 1.03-2.67.9h-.02l-.017-.003c-.78-.11-1.962-.276-3.153-1.467-1.195-1.195-1.358-2.37-1.468-3.16l-.002-.01-.001-.015c-.08-.6-.112-.849-.519-1.255-.41-.4-.66-.44-1.27-.52l-.017-.003c-.78-.11-1.962-.276-3.153-1.467-1.19-1.191-1.357-2.373-1.467-3.153l-.003-.017v-.02c-.13-.98.19-1.96.89-2.66l.94-.94c.148.147.28.294.397.44l2.093-2.226Z"/><path fill="#FFDEA7" d="M18.15 12.002c-.78-.11-1.96-.276-3.152-1.467-1.195-1.195-1.358-2.37-1.468-3.16l-.002-.01-.002-.014c-.078-.6-.11-.85-.518-1.256l2.35-2.35c1.195 1.195 1.359 2.37 1.469 3.16l.001.01.002.014c.079.6.112.849.518 1.256.41.4.66.44 1.27.52l.018.002c.78.11 1.961.277 3.152 1.468 1.195 1.195 1.359 2.37 1.469 3.16l.001.01.002.014c.079.6.111.849.518 1.256.41.4.66.44 1.27.52l.018.002c.78.11 1.961.277 3.152 1.468l-2.35 2.35c-.41-.4-.66-.44-1.27-.52l-.017-.003c-.78-.11-1.962-.276-3.153-1.467-1.195-1.195-1.358-2.37-1.468-3.16l-.002-.01-.002-.014c-.078-.6-.11-.85-.518-1.256-.41-.4-.66-.44-1.27-.52l-.017-.003ZM8.91 21.282c-.78-.11-1.96-.276-3.152-1.467-1.19-1.191-1.357-2.373-1.467-3.153l-.003-.017-.002-.014c-.078-.6-.11-.85-.518-1.256l2.35-2.35c1.195 1.195 1.359 2.37 1.469 3.16l.001.01.002.014c.079.6.111.849.518 1.256.41.4.66.44 1.27.52l.018.002c.78.11 1.961.277 3.152 1.468 1.195 1.195 1.359 2.37 1.469 3.16l.001.01.002.014c.079.6.112.849.518 1.256.41.4.66.44 1.27.52l.018.002c.78.11 1.961.277 3.152 1.468l-2.35 2.35c-.41-.4-.66-.44-1.27-.52l-.017-.003c-.78-.11-1.962-.276-3.153-1.467-1.195-1.195-1.358-2.37-1.468-3.16l-.002-.01-.002-.014c-.078-.6-.11-.85-.518-1.256-.41-.4-.66-.44-1.27-.52l-.017-.003Z"/></svg>
